X: 19663
T: Jenn And Anthony's Wedding Day
R: waltz
M: 3/4
K: Fmajor
|:C CD|F4 dc|cA F2 G/A/G|G3 B A/G/F|D3 C CE|
F3 f fc|d3 f fe|ed dc cA|G4 fg|
[M:9/8] adf gce fcA|[M:3/4] d3 c cd|c3 C D<F|G3 A/B/ B/A/G|
A3 G AF|D3 A G/F/D|CD F2 FE|F3:|
f {f/g/}fe|d3 c df|A>G F2 d<f|g3 c ga/b/|a>g f2 fe|
ed dc cf|A>G F2 dc|c3 C D<F|G3 f fe|
d3 c df|AG F2 A<c|d3 c cA|G3 A/B/ B/A/G|
A3 G AF|D3 A G/F/D|CD F2 FE|F3 {e/}f fe|
dd- dc df|A>G F2 d<f|g3 c ga/b/|a>g f2 fe|
ed dc cf|A>G F2 d/e/c|c3 C D<F|G3 f/e/ fg|
[M:9/8] adf gce fcA|[M:3/4] d3 c cd|c3 C D<F|G4 A/B/G|
A3 G AF|D3 A G/F/D|CD F2 G/A/G|F3||

